X: 1
T: Maisy
T: Charlie's Jig
M: 6/8
L: 1/8
C: Charlie Heys
D: Light Up All the Beacons
K: G
gdc ABG|FGA BAG|DFG EFG|DCB, A,B,D|
gdc ABG|FGA BAG|dcB cAG|1 FDF GBd:|FDF GAF||
EDE cEc|dcB cBc|EDE cEB|DAD BDd|
EDE cEc|dcB cBc|def gdB|1 AGA BGD:|2 AGA Bdf||
